!!!OTL: Deutschlands neuer Stern.
!!!OTL-incipit: KAISER WILHELM NUN DER ZWEITE
!!!COM: W. Tschirsch
!!!ARE: Europa, Mitteleuropa, Deutschland
!!!SCT: F0465
!!!TXL: @@DE
!!!YEM: Copyright 1995, estate of Helmut Schaffrath.
**kern	**text
*ICvox	*
*M3/4	*
*k[b-]	*
*F:	*
!LO:TX:a:t=Mäßig.	!
!LO:TX:a:t=G. Schimmel	!
{8.a	1._Kai-
16g	-ſer
=1	=1
4g	Wilhelm,
4f	.
8.f	nun
16g	der
=2	=2
4f	Ʒwei-
4e}	-te,
{8.g	ſei-
16a	-ner
=3	=3
4.b-	Ah-
8g	-nen
8a	Stolʒ
8cc	und
=4	=4
4g	Ʒier,
4r}	.
{8.a	hält
16g	ʒu
=5	=5
4g	ſei-
4f	-nes
8.dd	Vol-
16cc	-kes
=6	=6
4cc	Freu-
4bn}	-de
{8cc	hoch
8dd	das
=7	=7
8ee	deut-
8cc	-ſche
4.dd	Reichs-
8cc	-pa-
=8	=8
4cc	-nier.
4r	.
4r}	.
=9	=9
{8.g	Und
16g	ſein
8g	red-
8g	-li-
8a	-ches
8f	Be-
=10	=10
4a	-ſtre
4g}	ben,
{8.dd	Deutchlans
16cc	.
=11	=11
4.b-	Schutʒ
8g	und
8a	Hort
8f	ʒu
=12	=12
4g	ſein,
4r}	.
{8.cc	for-
16cc	-dert,
=13	=13
4.cc	daß
8dd	wir
8ee	Lieb
8ff	und
=14	=14
4ff	Le-
4dd}	-ben
{8cc	freu-
8b-	-dig
=15	=15
8a	ihm
8a	von
4b-	Her-
4g	-ʒen
=16	=16
2cc}	weih'n,
{8.ff	freu-
16cc	-dig
=17	=17
8dd	ihm
8b-	von
4a	Her-
4g	-ʒen
=18	=18
2f}	weih'n.
==	==
!!!AGN: Vaterlands -, Heimat - Lied
!!!ONB: ESAC (Essen Associative Code) Database: FINK
!!!AMT: simple triple
!!!AIN: vox
!!!EED: Helmut Schaffrath
!!!EEV: 1.0
!!Text: G. Schimmel
!!!GTL: Vaterlands- und Heimathslieder.
!!!source: Musikalischer Hausschatz der Deutschen. Eine Sammlung von über 1000 Liedern und Gesängen mit Singstimmen und Klavierbegleitung. Leipzig, Litterarisches Verlags-Haus.
!!!page: 292
!!!ENC: Anna Maria Matuszewska
!!!EEV: 2024/03/14
*-	*-
